cssgg/pokemon.svg

<svg
  width="24"
  height="24"
  viewBox="0 0 24 24"
  fill="none"
  xmlns="http://www.w3.org/2000/svg"
>
  <path
    fill-rule="evenodd"
    clip-rule="evenodd"
    d="M3 12C3 7.02944 7.02944 3 12 3C16.9706 3 21 7.02944 21 12C21 16.9706 16.9706 21 12 21C7.02944 21 3 16.9706 3 12ZM5.07089 13C5.55612 16.3923 8.47353 19 12 19C15.5265 19 18.4439 16.3923 18.9291 13H14.8293C14.4174 14.1652 13.3062 15 12 15C10.6938 15 9.58251 14.1652 9.17068 13H5.07089ZM18.9291 11C18.4439 7.60771 15.5265 5 12 5C8.47353 5 5.55612 7.60771 5.07089 11H9.17068C9.58251 9.83481 10.6938 9 12 9C13.3062 9 14.4174 9.83481 14.8293 11H18.9291ZM12 13C12.5523 13 13 12.5523 13 12C13 11.4477 12.5523 11 12 11C11.4477 11 11 11.4477 11 12C11 12.5523 11.4477 13 12 13Z"
    fill="currentColor"
  />
</svg>

<svg viewBox="0 0 24 24" xmlns="http://www.w3.org/2000/svg"><path fill-rule="evenodd" d="M3 12c0-4.98 4.02-9 9-9 4.97 0 9 4.02 9 9 0 4.97-4.03 9-9 9 -4.98 0-9-4.03-9-9Zm2.07 1c.48 3.39 3.4 6 6.92 6s6.44-2.61 6.92-6h-4.1c-.42 1.16-1.53 2-2.83 2 -1.31 0-2.42-.84-2.83-2h-4.1Zm13.85-2c-.49-3.4-3.41-6-6.93-6 -3.53 0-6.45 2.6-6.93 6h4.09c.41-1.17 1.52-2 2.82-2 1.3 0 2.41.83 2.82 2h4.09Zm-6.93 2c.55 0 1-.45 1-1 0-.56-.45-1-1-1 -.56 0-1 .44-1 1 0 .55.44 1 1 1Z"/></svg>
